Yaru++/mimetypes/48/application-x-executable.svg

<svg height="48" viewBox="0 0 12.699375 12.699376" width="48" xmlns="http://www.w3.org/2000/svg" xmlns:xlink="http://www.w3.org/1999/xlink"><linearGradient id="a" gradientTransform="matrix(0 .26457032 -.26457032 0 28.573638 -84.794762)" gradientUnits="userSpaceOnUse" x1="321.99991" x2="365.99991" y1="84.000153" y2="84.000153"><stop offset="0" stop-color="#fff"/><stop offset=".125" stop-color="#fff" stop-opacity=".098039"/><stop offset=".92500001" stop-color="#fff" stop-opacity=".098039"/><stop offset="1" stop-color="#fff" stop-opacity=".498039"/></linearGradient><linearGradient id="b" gradientTransform="matrix(0 .26457032 -.26457032 0 28.573638 -84.794762)" gradientUnits="userSpaceOnUse" x1="320.99991" x2="366.99991" y1="92.000153" y2="76.000153"><stop offset="0" stop-color="#f2f2f2"/><stop offset="1" stop-color="#f9f9f9"/></linearGradient><path d="m3.6134393.39686012c-.6937299 0-1.2399749.0132523-1.6894429.0758616-.4494706.0626076-.8172682.18004087-1.08668293.40307679-.2694119.22303629-.4116105.52810139-.4863543.90123409-.0747464.373133-.0893375.8274028-.0859377 1.4044481v3.3004661 3.3020451c-.00336.5761571.011271 1.0301951.085938 1.4029271.074744.373134.2169424.6782.4863543.901235.26941473.223036.63721233.340471 1.08668293.403076.4494733.06261.995713.07586 1.6894429.07586h5.4729493c.693738 0 1.2396921-.01323 1.6882341-.07586.448537-.06264.81521-.180464 1.08363-.403581.268425-.223115.40978-.527963.485135-.90073.07536-.372761.09142-.826109.09142-1.4029271v-3.3020451-3.3019834c0-.5768191-.01609-1.0301661-.09142-1.4029308-.07535-.3727644-.216713-.6776116-.485138-.90072819-.26842-.22311666-.635093-.34094781-1.083632-.40358272-.448537-.0626352-.9944964-.0758616-1.6882294-.0758616z" opacity=".1"/><path d="m3.5280915.26458792c-2.64865573 0-3.14486003.23979331-3.13094363 2.57913198v3.373687 3.3737505c-.013943 2.3393366.4822879 2.5791306 3.13094363 2.5791306h5.6434971c2.6479944 0 3.1309384-.239767 3.1309384-2.5791306v-3.3737505-3.373687c0-2.33936512-.482944-2.57913198-3.1309414-2.57913198z" fill="url(#b)"/><path d="m3.5277751.264576c-2.64799353 0-3.13091963.23967853-3.13091963 2.5790439v3.3737876.4175255c.00405.0001066.00773-.000137.011878 0 .011057.0008202.021986.00124.033072.00206.01159.0008201.022806.00185.035138.00311l-.0011-.00108c.07307.00431.1464767.00673.220131.00724l-.0005475.0005492c.00465-.0002645.00889.0001053.013438 0 .019447.0000519.038403-.0002645.057875-.0005556.29288213.00691.33274923.136917.44697803.4180413l.057359.1545045c.1576516.4377803.2907275.4209002.6619452.3296803.3731555-.0829417.5004402-.1268054.4474981-.5890825l-.0175675-.1638063c-.022357-.3026214-.0444512-.4369345.2149625-.5730633.017542-.00847.03532-.017147.052708-.025838.004-.00185.00731-.00382.011372-.00568h.0005476c.065642-.033072.1298218-.068172.193261-.1043817l-.0005476.00108c.010509-.00657.020478-.011673.030487-.01757.00961-.00558.018865-.0114.02842-.017052.2592835-.1427685.3585037-.049604.5988994.1374522l.1271189.1049051c.3554156.3003061.4625451.2191351.7384208-.045473.2816899-.2584075.3694851-.3598948.0924956-.7337686l-.0966311-.1333194c-.1837629-.2701448-.2702433-.3709916-.0604572-.6629759l-.00672.00311c.042411-.064404.083047-.1297749.1219521-.1963609v.00724c.1686023-.3175543.2974854-.2851214.6211184-.2402889l.1622557.027903c.4579524.0823673.5098601-.0416398.6164697-.4087396.114746-.3646324.1400289-.4968064-.2867886-.6820948l-.1503712-.0666561c-.2742923-.1324545-.4015032-.1802073-.3885869-.4759167.0008202-.011057.00138-.021989.00212-.033072.0008201-.011591.00159-.022814.00265-.035137l-.0005556.0011c.00431-.072899.00725-.1461338.00774-.219614v-.0005521c-.0001367-.00445.0001014-.00853 0-.012919.0000535-.019438-.0002645-.038918-.0005556-.058391.00691-.2928819.1369115-.3327495.4180391-.4469788l.1545027-.0568407c.4377824-.157647.4214163-.2912415.330197-.6624604-.082943-.3731539-.1273216-.49992245-.5895998-.44697894l-.163806.0170526c-.302624.02235-.4369355.044449-.5730657-.21496395-.00847-.0175384-.016642-.034803-.025317-.0521908-.00185-.003996-.00434-.007294-.00619-.011372v-.00054765c-.032413-.06422379-.066457-.12746918-.1018402-.18961019z" fill="#aea795"/><path d="m8.6886126 3.8311474c-.4892616-.0054422-.6604386.0126809-.7292587.6042731l-.026166.2090714c-.060388.3836865-.071841.5574878-.4348557.651506-.024314.00543-.048774.010951-.072979.016713-.00571.00119-.010741.00238-.016615.00353l.0007937.0003175c-.09165.02211-.1822757.046709-.2720841.073393l.00106-.00114c-.015001.00513-.028666.00927-.042871.013702-.013599.00416-.027248.0081-.040799.012353-.3647891.1023329-.4612488-.042342-.7063176-.3455788l-.1274779-.168067c-.1776987-.2389631-.3056661-.3409382-.4420203-.3520169-.017038-.0014-.034384-.00138-.0518 0-.1219063.0095643-.2555514.0844133-.4397373.1935004-.4264318.2399195-.5654794.3410314-.3292816.8877755l.081699.1942272c.1502472.390283.2283695.5412355-.1182388.8439679l.00923-.00209c-.0716368.0679035-.1413696.1377437-.2092769.2093827l.00185-.00924c-.3027326.3466095-.4536832.2684888-.8439667.1182398l-.1942264-.0819056c-.1708595-.073812-.2981046-.110905-.3997711-.1140859-.2236598-.0069979-.3229583.1502992-.4879019.4434725-.2493443.4209938-.3194105.5782623.1585172.9336588l.1679625.1273743c.3032372.2450712.4479122.3416341.3455817.7064207-.00426.013551-.0082.0271-.012355.040694-.00444.014205-.00836.027874-.013493.042873l.00106-.0008202c-.026685.089809-.051284.1804346-.073395.2720838l-.0001058-.0007407c-.00106.00587-.00265.010887-.00373.01661-.00577.024205-.011271.048443-.016721.07277-.094015.363014-.2676102.374676-.6512979.435064l-.2090714.02616c-.5915925.06882-.6097129.2399961-.6042734.7292551-.00545.489265.012673.660339.6042734.729156l.2090714.02627c.3836877.06039.5572828.07195.6512979.434962.00542.02431.010953.04856.016721.07277.00106.0057.00265.01085.00373.01672l.0001058-.000794c.020901.08659.044146.172293.069138.257239h1.5684474a3.9912338 3.9912328 0 0 1 -.3115315-1.536375 3.9912338 3.9912328 0 0 1 3.991255-3.9912514 3.9912338 3.9912328 0 0 1 3.6139094 2.3078848v-2.4397225c-.144614-.1887006-.09876-.3383929 0-.5952417v-1.0461256c-.05997-.0398639-.130846-.0807083-.212497-.1266472-.210498-.1246719-.355181-.2045785-.491538-.1935004-.136354.01108-.264425.1130538-.442123.3520169l-.127478.167963c-.245069.303237-.341529.4480147-.706316.3456844-.01355-.00426-.0272-.0082-.0408-.012353-.01421-.00443-.02787-.00837-.04287-.013496l.0011.000926c-.08985-.026682-.180577-.051283-.2722294-.073393l.000794-.0001064c-.0059-.00116-.0109-.00257-.01661-.00374-.02421-.00576-.04855-.011276-.07288-.016713-.363016-.094013-.374569-.2677105-.43496-.6513978l-.026166-.2089677c-.06881-.5916253-.239997-.6099195-.729259-.6044792z" fill="#c8c4b7" opacity=".9"/><path d="m3.5280915.26458739c-2.64865573 0-3.14486003.23979331-3.13094363 2.57913201v3.3736878 3.3737505c-.013943 2.3393363.4822879 2.5791303 3.13094363 2.5791303h5.6434971c2.6479944 0 3.1309384-.239767 3.1309384-2.5791303v-3.3737505-3.3736878c0-2.33936515-.482944-2.57913201-3.1309414-2.57913201z" fill="none" opacity=".4" stroke="#000" stroke-width=".26457"/><path d="m3.5282953.39686012c-1.3203355 0-2.0823034.073096-2.4829316.38445379-.20031413.15567873-.32743493.37132909-.40874003.70379829-.081302.3324692-.1104052.7778449-.1069658 1.35799v3.374305 3.374305c-.00347.5801438.025663 1.0255188.1069658 1.3579878.081305.332467.2084259.548116.40874003.7038.4006309.311354 1.1625961.384452 2.4829316.384452h5.6433063c1.3200024 0 2.0782054-.0732 2.4772464-.384452.199518-.155631.326197-.371618.408224-.704316.08202-.332697.113165-.7777.113165-1.3579885v-3.3737883-3.3737883c0-.5802898-.03114-1.0252927-.113165-1.35799-.08203-.3326969-.208703-.54868546-.408224-.70431499-.399041-.31125882-1.157241-.38445379-2.4772464-.38445379zm.6355878.2904072c1.8380679.00021959 3.6803399.00089954 5.5161885.0144693.5669634.0219408 1.1811244-.0390773 1.6995554.24648432.342907.18393666.409719.59536906.468165.94304886.04644.5828187.02421 1.1752816.03669 1.764663.006 2.2434325.02037 4.489492-.02119 6.7325902-.04273.392418-.100894.874614-.475915 1.096001-.424767.219252-.919517.239814-1.3884784.25217-2.5133496.01794-5.0332655.0223-7.546456-.0047-.4175383-.030152-.8652892-.063491-1.225708-.296564-.32529453-.263348-.36003263-.721586-.39789003-1.109438-.0336533-2.380757-.022118-4.7634506-.0139428-7.1454643.0263777-.6300147-.0649203-1.2963949.18654323-1.8943647.1776987-.39942709.652359-.49208869 1.0422616-.54412589.7042015-.0837582 1.4132922-.0388977 2.1201792-.0547745z" fill="url(#a)" opacity=".7"/></svg>

<?xml version="1.0" encoding="UTF-8" standalone="no"?>
<svg
   xmlns:dc="http://purl.org/dc/elements/1.1/"
   xmlns:cc="http://creativecommons.org/ns#"
   xmlns:rdf="http://www.w3.org/1999/02/22-rdf-syntax-ns#"
   xmlns:svg="http://www.w3.org/2000/svg"
   xmlns="http://www.w3.org/2000/svg"
   xmlns:xlink="http://www.w3.org/1999/xlink"
   xmlns:sodipodi="http://sodipodi.sourceforge.net/DTD/sodipodi-0.dtd"
   xmlns:inkscape="http://www.inkscape.org/namespaces/inkscape"
   height="48"
   viewBox="0 0 12.699375 12.699376"
   width="48"
   version="1.1"
   id="svg33"
   sodipodi:docname="application-x-executable48.svg"
   inkscape:version="0.92.5 (2060ec1f9f, 2020-04-08)">
  <metadata
     id="metadata39">
    <rdf:RDF>
      <cc:Work
         rdf:about="">
        <dc:format>image/svg+xml</dc:format>
        <dc:type
           rdf:resource="http://purl.org/dc/dcmitype/StillImage" />
        <dc:title></dc:title>
      </cc:Work>
    </rdf:RDF>
  </metadata>
  <defs
     id="defs37">
    <linearGradient
       inkscape:collect="always"
       xlink:href="#linearGradient927"
       id="linearGradient1686-0"
       x1="321.99991"
       y1="84.000153"
       x2="365.99991"
       y2="84.000153"
       gradientUnits="userSpaceOnUse"
       gradientTransform="matrix(0,0.26457032,-0.26457032,0,28.573638,-84.794762)" />
    <linearGradient
       inkscape:collect="always"
       id="linearGradient927">
      <stop
         style="stop-color:#ffffff;stop-opacity:1;"
         offset="0"
         id="stop923" />
      <stop
         id="stop933"
         offset="0.125"
         style="stop-color:#ffffff;stop-opacity:0.09803922" />
      <stop
         id="stop931"
         offset="0.92500001"
         style="stop-color:#ffffff;stop-opacity:0.09803922" />
      <stop
         style="stop-color:#ffffff;stop-opacity:0.49803922"
         offset="1"
         id="stop925" />
    </linearGradient>
    <linearGradient
       inkscape:collect="always"
       xlink:href="#linearGradient4338"
       id="linearGradient1686"
       x1="320.99991"
       y1="92.000153"
       x2="366.99991"
       y2="76.000153"
       gradientUnits="userSpaceOnUse"
       gradientTransform="matrix(0,0.26457032,-0.26457032,0,28.573638,-84.794762)" />
    <linearGradient
       inkscape:collect="always"
       id="linearGradient4338">
      <stop
         style="stop-color:#f2f2f2;stop-opacity:1"
         offset="0"
         id="stop4340" />
      <stop
         style="stop-color:#f9f9f9;stop-opacity:1"
         offset="1"
         id="stop4342" />
    </linearGradient>
  </defs>
  <sodipodi:namedview
     pagecolor="#ffffff"
     bordercolor="#666666"
     borderopacity="1"
     objecttolerance="10"
     gridtolerance="10"
     guidetolerance="10"
     inkscape:pageopacity="0"
     inkscape:pageshadow="2"
     inkscape:window-width="1920"
     inkscape:window-height="1016"
     id="namedview35"
     showgrid="false"
     inkscape:zoom="4.9166667"
     inkscape:cx="-12.610169"
     inkscape:cy="24"
     inkscape:window-x="0"
     inkscape:window-y="27"
     inkscape:window-maximized="1"
     inkscape:current-layer="svg33" />
  <linearGradient
     id="a"
     gradientUnits="userSpaceOnUse"
     x1="344"
     x2="344"
     y1="62"
     y2="106">
    <stop
       offset="0"
       stop-color="#fff"
       id="stop2" />
    <stop
       offset=".125"
       stop-color="#fff"
       stop-opacity=".098039"
       id="stop4" />
    <stop
       offset=".92500001"
       stop-color="#fff"
       stop-opacity=".098039"
       id="stop6" />
    <stop
       offset="1"
       stop-color="#fff"
       stop-opacity=".498039"
       id="stop8" />
  </linearGradient>
  <clipPath
     id="b">
    <path
       d="m335.73108 62c-8.82418 0-9.77365.90635-9.7304 9.74838v12.25162 12.25162c-.0433 8.84203.90622 9.74838 9.7304 9.74838h16.53919c8.82418 0 9.7304-.90625 9.7304-9.74838v-12.25162-12.25162c0-8.84213-.90622-9.74838-9.7304-9.74838z"
       id="path11" />
  </clipPath>
  <linearGradient
     id="c"
     gradientTransform="matrix(0 -.02997086 .02997 0 -3.039509 13.625372)"
     gradientUnits="userSpaceOnUse"
     x1="459.03448"
     x2="35.310345"
     y1="419.23337"
     y2="207.36522">
    <stop
       offset="0"
       stop-color="#f2f2f2"
       id="stop14" />
    <stop
       offset="1"
       stop-color="#f9f9f9"
       id="stop16" />
  </linearGradient>
  <path
     style="color:#000000;font-style:normal;font-variant:normal;font-weight:normal;font-stretch:normal;font-size:medium;line-height:normal;font-family:sans-serif;font-variant-ligatures:normal;font-variant-position:normal;font-variant-caps:normal;font-variant-numeric:normal;font-variant-alternates:normal;font-feature-settings:normal;text-indent:0;text-align:start;text-decoration:none;text-decoration-line:none;text-decoration-style:solid;text-decoration-color:#000000;letter-spacing:normal;word-spacing:normal;text-transform:none;writing-mode:lr-tb;direction:ltr;text-orientation:mixed;dominant-baseline:auto;baseline-shift:baseline;text-anchor:start;white-space:normal;shape-padding:0;clip-rule:nonzero;display:inline;overflow:visible;visibility:visible;opacity:0.1;isolation:auto;mix-blend-mode:normal;color-interpolation:sRGB;color-interpolation-filters:linearRGB;solid-color:#000000;solid-opacity:1;vector-effect:none;fill:#000000;fill-opacity:1;fill-rule:nonzero;stroke:none;stroke-width:0.52914071;stroke-linecap:butt;stroke-linejoin:miter;stroke-miterlimit:4;stroke-dasharray:none;stroke-dashoffset:0;stroke-opacity:1;marker:none;color-rendering:auto;image-rendering:auto;shape-rendering:auto;text-rendering:auto;enable-background:accumulate"
     d="m 3.6134393,0.39686012 c -0.6937299,0 -1.2399749,0.0132523 -1.6894429,0.0758616 C 1.4745258,0.53532932 1.1067282,0.65276259 0.83731347,0.87579851 0.56790157,1.0988348 0.42570297,1.4038999 0.35095917,1.7770326 0.27621277,2.1501656 0.26162167,2.6044354 0.26502147,3.1814807 v 3.3004661 3.3020451 c -0.00336,0.5761571 0.011271,1.0301951 0.085938,1.4029271 0.074744,0.373134 0.2169424,0.6782 0.4863543,0.901235 0.26941473,0.223036 0.63721233,0.340471 1.08668293,0.403076 0.4494733,0.06261 0.995713,0.07586 1.6894429,0.07586 h 5.4729493 c 0.693738,0 1.2396921,-0.01323 1.6882341,-0.07586 0.448537,-0.06264 0.81521,-0.180464 1.08363,-0.403581 0.268425,-0.223115 0.40978,-0.527963 0.485135,-0.90073 0.07536,-0.372761 0.09142,-0.826109 0.09142,-1.4029271 V 6.4819468 3.1799634 c 0,-0.5768191 -0.01609,-1.0301661 -0.09142,-1.4029308 C 12.268038,1.4042682 12.126675,1.099421 11.85825,0.87630441 11.58983,0.65318775 11.223157,0.5353566 10.774618,0.47272169 10.326081,0.41008649 9.7801216,0.39686009 9.0863886,0.39686009 Z"
     id="path1020"
     inkscape:connector-curvature="0"
     sodipodi:nodetypes="sccsccccccsscccscsccsss" />
  <path
     style="color:#000000;display:inline;overflow:visible;visibility:visible;fill:url(#linearGradient1686);fill-opacity:1;fill-rule:nonzero;stroke:none;stroke-width:0.26457033;marker:none;enable-background:accumulate"
     d="m 3.5280915,0.26458792 c -2.64865573,0 -3.14486003,0.23979331 -3.13094363,2.57913198 v 3.373687 3.3737505 c -0.013943,2.3393366 0.4822879,2.5791306 3.13094363,2.5791306 h 5.6434971 c 2.6479944,0 3.1309384,-0.239767 3.1309384,-2.5791306 V 6.2174069 2.8437199 c 0,-2.33936512 -0.482944,-2.57913198 -3.1309414,-2.57913198 z"
     id="path964"
     inkscape:connector-curvature="0"
     sodipodi:nodetypes="scccssscsss" />
  <path
     id="path6431-6"
     d="m 3.5277751,0.264576 c -2.64799353,0 -3.13091963,0.23967853 -3.13091963,2.5790439 V 6.2174075 6.634933 c 0.00405,1.066e-4 0.00773,-1.37e-4 0.011878,0 0.011057,8.202e-4 0.021986,0.00124 0.033072,0.00206 0.01159,8.201e-4 0.022806,0.00185 0.035138,0.00311 l -0.0011,-0.00108 c 0.07307,0.00431 0.1464767,0.00673 0.220131,0.00724 l -5.475e-4,5.492e-4 c 0.00465,-2.645e-4 0.00889,1.053e-4 0.013438,0 0.019447,5.19e-5 0.038403,-2.645e-4 0.057875,-5.556e-4 0.29288213,0.00691 0.33274923,0.136917 0.44697803,0.4180413 L 1.271077,7.2188024 C 1.4287286,7.6565827 1.5618045,7.6397026 1.9330222,7.5484827 2.3061777,7.465541 2.4334624,7.4216773 2.3805203,6.9594002 L 2.3629528,6.7955939 C 2.3405958,6.4929725 2.3185016,6.3586594 2.5779153,6.2225306 c 0.017542,-0.00847 0.03532,-0.017147 0.052708,-0.025838 0.004,-0.00185 0.00731,-0.00382 0.011372,-0.00568 0,0 5.476e-4,0 5.476e-4,0 0.065642,-0.033072 0.1298218,-0.068172 0.193261,-0.1043817 l -5.476e-4,0.00108 c 0.010509,-0.00657 0.020478,-0.011673 0.030487,-0.01757 0.00961,-0.00558 0.018865,-0.0114 0.02842,-0.017052 C 3.1534468,5.9103204 3.252667,6.0034849 3.4930627,6.1905411 L 3.6201816,6.2954462 C 3.9755972,6.5957523 4.0827267,6.5145813 4.3586024,6.2499732 4.6402923,5.9915657 4.7280875,5.8900784 4.451098,5.5162046 L 4.3544669,5.3828852 C 4.170704,5.1127404 4.0842236,5.0118936 4.2940097,4.7199093 l -0.00672,0.00311 c 0.042411,-0.064404 0.083047,-0.1297749 0.1219521,-0.1963609 v 0.00724 C 4.5778441,4.2163441 4.7067272,4.248777 5.0303602,4.2936095 l 0.1622557,0.027903 C 5.6505683,4.4038798 5.702476,4.2798727 5.8090856,3.9127729 5.9238316,3.5481405 5.9491145,3.4159665 5.522297,3.2306781 L 5.3719258,3.164022 C 5.0976335,3.0315675 4.9704226,2.9838147 4.9833389,2.6881053 c 8.202e-4,-0.011057 0.00138,-0.021989 0.00212,-0.033072 8.201e-4,-0.011591 0.00159,-0.022814 0.00265,-0.035137 l -5.556e-4,0.0011 c 0.00431,-0.072899 0.00725,-0.1461338 0.00774,-0.219614 v -5.521e-4 c -1.367e-4,-0.00445 1.014e-4,-0.00853 0,-0.012919 5.35e-5,-0.019438 -2.645e-4,-0.038918 -5.556e-4,-0.058391 0.00691,-0.2928819 0.1369115,-0.3327495 0.4180391,-0.4469788 L 5.5672795,1.8257007 C 6.0050619,1.6680537 5.9886958,1.5344592 5.8974765,1.1632403 5.8145335,0.7900864 5.7701549,0.66331785 5.3078767,0.71626136 l -0.163806,0.0170526 c -0.302624,0.02235 -0.4369355,0.044449 -0.5730657,-0.21496395 -0.00847,-0.0175384 -0.016642,-0.034803 -0.025317,-0.0521908 -0.00185,-0.003996 -0.00434,-0.007294 -0.00619,-0.011372 V 0.45423956 C 4.507085,0.39001577 4.473041,0.32677038 4.4376578,0.26462937 Z"
     style="color:#000000;display:inline;overflow:visible;visibility:visible;opacity:1;fill:#aea795;fill-opacity:1;fill-rule:nonzero;stroke:none;stroke-width:0.05315028;marker:none;enable-background:accumulate"
     inkscape:connector-curvature="0" />
  <path
     style="color:#000000;display:inline;overflow:visible;visibility:visible;opacity:0.9;fill:#c8c4b7;fill-opacity:1;fill-rule:nonzero;stroke:none;stroke-width:0.05315028;marker:none;enable-background:accumulate"
     d="M 8.6886126,3.8311474 C 8.199351,3.8257052 8.028174,3.8438283 7.9593539,4.4354205 l -0.026166,0.2090714 c -0.060388,0.3836865 -0.071841,0.5574878 -0.4348557,0.651506 -0.024314,0.00543 -0.048774,0.010951 -0.072979,0.016713 -0.00571,0.00119 -0.010741,0.00238 -0.016615,0.00353 l 7.937e-4,3.175e-4 c -0.09165,0.02211 -0.1822757,0.046709 -0.2720841,0.073393 l 0.00106,-0.00114 c -0.015001,0.00513 -0.028666,0.00927 -0.042871,0.013702 -0.013599,0.00416 -0.027248,0.0081 -0.040799,0.012353 C 6.6900487,5.5171993 6.593589,5.3725244 6.3485202,5.0692876 L 6.2210423,4.9012206 C 6.0433436,4.6622575 5.9153762,4.5602824 5.779022,4.5492037 c -0.017038,-0.0014 -0.034384,-0.00138 -0.0518,0 C 5.6053157,4.558768 5.4716706,4.633617 5.2874847,4.7427041 4.8610529,4.9826236 4.7220053,5.0837355 4.9582031,5.6304796 l 0.081699,0.1942272 c 0.1502472,0.390283 0.2283695,0.5412355 -0.1182388,0.8439679 l 0.00923,-0.00209 C 4.8592565,6.7344882 4.7895237,6.8043284 4.7216164,6.8759674 l 0.00185,-0.00924 C 4.4207338,7.2133369 4.2697832,7.1352162 3.8794997,6.9849672 L 3.6852733,6.9030616 C 3.5144138,6.8292496 3.3871687,6.7921566 3.2855022,6.7889757 3.0618424,6.7819778 2.9625439,6.9392749 2.7976003,7.2324482 2.548256,7.653442 2.4781898,7.8107105 2.9561175,8.166107 L 3.12408,8.2934813 c 0.3032372,0.2450712 0.4479122,0.3416341 0.3455817,0.7064207 -0.00426,0.013551 -0.0082,0.0271 -0.012355,0.040694 -0.00444,0.014205 -0.00836,0.027874 -0.013493,0.042873 l 0.00106,-8.202e-4 c -0.026685,0.089809 -0.051284,0.1804346 -0.073395,0.2720838 l -1.058e-4,-7.407e-4 c -0.00106,0.00587 -0.00265,0.010887 -0.00373,0.01661 -0.00577,0.024205 -0.011271,0.048443 -0.016721,0.07277 -0.094015,0.363014 -0.2676102,0.374676 -0.6512979,0.435064 l -0.2090714,0.02616 c -0.5915925,0.06882 -0.6097129,0.2399961 -0.6042734,0.7292551 -0.00545,0.489265 0.012673,0.660339 0.6042734,0.729156 l 0.2090714,0.02627 c 0.3836877,0.06039 0.5572828,0.07195 0.6512979,0.434962 0.00542,0.02431 0.010953,0.04856 0.016721,0.07277 0.00106,0.0057 0.00265,0.01085 0.00373,0.01672 l 1.058e-4,-7.94e-4 c 0.020901,0.08659 0.044146,0.172293 0.069138,0.257239 H 5.0090641 A 3.9912338,3.9912328 0 0 1 4.6975326,10.633799 3.9912338,3.9912328 0 0 1 8.6887876,6.6425476 3.9912338,3.9912328 0 0 1 12.302697,8.9504324 V 6.5107099 c -0.144614,-0.1887006 -0.09876,-0.3383929 0,-0.5952417 V 4.8693426 C 12.242727,4.8294787 12.171851,4.7886343 12.0902,4.7426954 11.879702,4.6180235 11.735019,4.5381169 11.598662,4.549195 11.462308,4.560275 11.334237,4.6622488 11.156539,4.9012119 l -0.127478,0.167963 c -0.245069,0.303237 -0.341529,0.4480147 -0.706316,0.3456844 -0.01355,-0.00426 -0.0272,-0.0082 -0.0408,-0.012353 -0.01421,-0.00443 -0.02787,-0.00837 -0.04287,-0.013496 l 0.0011,9.26e-4 c -0.08985,-0.026682 -0.180577,-0.051283 -0.2722294,-0.073393 l 7.94e-4,-1.064e-4 c -0.0059,-0.00116 -0.0109,-0.00257 -0.01661,-0.00374 -0.02421,-0.00576 -0.04855,-0.011276 -0.07288,-0.016713 -0.363016,-0.094013 -0.374569,-0.2677105 -0.43496,-0.6513978 L 9.4181236,4.4356184 C 9.3493136,3.8439931 9.1781266,3.8256989 8.6888646,3.8311392 Z"
     id="rect4158-0-7"
     inkscape:connector-curvature="0" />
  <path
     style="color:#000000;display:inline;overflow:visible;visibility:visible;opacity:0.4;fill:none;fill-opacity:1;fill-rule:nonzero;stroke:#000000;stroke-width:0.26457033;stroke-miterlimit:4;stroke-dasharray:none;stroke-opacity:1;marker:none;enable-background:accumulate"
     d="m 3.5280915,0.26458739 c -2.64865573,0 -3.14486003,0.23979331 -3.13094363,2.57913201 v 3.3736878 3.3737505 c -0.013943,2.3393363 0.4822879,2.5791303 3.13094363,2.5791303 h 5.6434971 c 2.6479944,0 3.1309384,-0.239767 3.1309384,-2.5791303 V 6.2174072 2.8437194 c 0,-2.33936515 -0.482944,-2.57913201 -3.1309414,-2.57913201 z"
     id="path958"
     inkscape:connector-curvature="0"
     sodipodi:nodetypes="scccssscsss" />
  <path
     style="color:#000000;display:inline;overflow:visible;visibility:visible;opacity:0.7;fill:url(#linearGradient1686-0);fill-opacity:1;fill-rule:nonzero;stroke:none;stroke-width:0.26457033;marker:none;enable-background:accumulate"
     d="m 3.5282953,0.39686012 c -1.3203355,0 -2.0823034,0.073096 -2.4829316,0.38445379 C 0.84504957,0.93699264 0.71792877,1.152643 0.63662367,1.4851122 c -0.081302,0.3324692 -0.1104052,0.7778449 -0.1069658,1.35799 v 3.374305 3.374305 c -0.00347,0.5801438 0.025663,1.0255188 0.1069658,1.3579878 0.081305,0.332467 0.2084259,0.548116 0.40874003,0.7038 0.4006309,0.311354 1.1625961,0.384452 2.4829316,0.384452 h 5.6433063 c 1.3200024,0 2.0782054,-0.0732 2.4772464,-0.384452 0.199518,-0.155631 0.326197,-0.371618 0.408224,-0.704316 0.08202,-0.332697 0.113165,-0.7777 0.113165,-1.3579885 V 6.2174072 2.8436189 c 0,-0.5802898 -0.03114,-1.0252927 -0.113165,-1.35799 C 11.975042,1.152932 11.848369,0.93694344 11.648848,0.78131391 11.249807,0.47005509 10.491607,0.39686012 9.1716016,0.39686012 Z m 0.6355878,0.2904072 c 1.8380679,2.1959e-4 3.6803399,8.9954e-4 5.5161885,0.0144693 0.5669634,0.0219408 1.1811244,-0.0390773 1.6995554,0.24648432 0.342907,0.18393666 0.409719,0.59536906 0.468165,0.94304886 0.04644,0.5828187 0.02421,1.1752816 0.03669,1.764663 0.006,2.2434325 0.02037,4.489492 -0.02119,6.7325902 -0.04273,0.392418 -0.100894,0.874614 -0.475915,1.096001 -0.424767,0.219252 -0.919517,0.239814 -1.3884784,0.25217 -2.5133496,0.01794 -5.0332655,0.0223 -7.546456,-0.0047 C 2.0349043,11.701842 1.5871534,11.668503 1.2267346,11.43543 0.90144007,11.172082 0.86670197,10.713844 0.82884457,10.325992 0.79519127,7.945235 0.80672657,5.5625414 0.81490177,3.1805277 0.84127947,2.550513 0.74998147,1.8841328 1.001445,1.286163 1.1791437,0.88673591 1.653804,0.79407431 2.0437066,0.74203711 2.7479081,0.65827891 3.4569988,0.70313941 4.1638858,0.68726261 Z"
     id="path964-3"
     inkscape:connector-curvature="0" />
</svg>
